exported-svg/x-square.svg

<svg height="24" viewBox="0 0 24 24" width="24" xmlns="http://www.w3.org/2000/svg"><path d="m12.5 11.7928932 2.6464466-2.64644659c.1952622-.19526215.5118446-.19526215.7071068 0 .1952621.19526215.1952621.51184463 0 .70710678l-2.6464466 2.64644661 2.6464466 2.6464466c.1952621.1952622.1952621.5118446 0 .7071068-.1952622.1952621-.5118446.1952621-.7071068 0l-2.6464466-2.6464466-2.64644661 2.6464466c-.19526215.1952621-.51184463.1952621-.70710678 0-.19526215-.1952622-.19526215-.5118446 0-.7071068l2.64644659-2.6464466-2.64644659-2.64644661c-.19526215-.19526215-.19526215-.51184463 0-.70710678s.51184463-.19526215.70710678 0zm-7-8.7928932h14c1.3807119 0 2.5 1.11928813 2.5 2.5v14c0 1.3807119-1.1192881 2.5-2.5 2.5h-14c-1.38071187 0-2.5-1.1192881-2.5-2.5v-14c0-1.38071187 1.11928813-2.5 2.5-2.5zm0 1c-.82842712 0-1.5.67157288-1.5 1.5v14c0 .8284271.67157288 1.5 1.5 1.5h14c.8284271 0 1.5-.6715729 1.5-1.5v-14c0-.82842712-.6715729-1.5-1.5-1.5z"/></svg>

<?xml version="1.0" encoding="UTF-8"?>
<svg width="24px" height="24px" viewBox="0 0 24 24" version="1.1" xmlns="http://www.w3.org/2000/svg" xmlns:xlink="http://www.w3.org/1999/xlink">
    <!-- Generator: Sketch 55.2 (78181) - https://sketchapp.com -->
    <title>x-square</title>
    <desc>Created with Sketch.</desc>
    <g id="x-square" stroke="none" stroke-width="1" fill="none" fill-rule="evenodd">
        <path d="M12.5,11.7928932 L15.1464466,9.14644661 C15.3417088,8.95118446 15.6582912,8.95118446 15.8535534,9.14644661 C16.0488155,9.34170876 16.0488155,9.65829124 15.8535534,9.85355339 L13.2071068,12.5 L15.8535534,15.1464466 C16.0488155,15.3417088 16.0488155,15.6582912 15.8535534,15.8535534 C15.6582912,16.0488155 15.3417088,16.0488155 15.1464466,15.8535534 L12.5,13.2071068 L9.85355339,15.8535534 C9.65829124,16.0488155 9.34170876,16.0488155 9.14644661,15.8535534 C8.95118446,15.6582912 8.95118446,15.3417088 9.14644661,15.1464466 L11.7928932,12.5 L9.14644661,9.85355339 C8.95118446,9.65829124 8.95118446,9.34170876 9.14644661,9.14644661 C9.34170876,8.95118446 9.65829124,8.95118446 9.85355339,9.14644661 L12.5,11.7928932 Z M5.5,3 L19.5,3 C20.8807119,3 22,4.11928813 22,5.5 L22,19.5 C22,20.8807119 20.8807119,22 19.5,22 L5.5,22 C4.11928813,22 3,20.8807119 3,19.5 L3,5.5 C3,4.11928813 4.11928813,3 5.5,3 Z M5.5,4 C4.67157288,4 4,4.67157288 4,5.5 L4,19.5 C4,20.3284271 4.67157288,21 5.5,21 L19.5,21 C20.3284271,21 21,20.3284271 21,19.5 L21,5.5 C21,4.67157288 20.3284271,4 19.5,4 L5.5,4 Z" id="Combined-Shape" fill="#000000" fill-rule="nonzero"></path>
    </g>
</svg>
